images/chat.svg

<svg xmlns="http://www.w3.org/2000/svg" width="20" height="18" fill="none"><path stroke="#000" stroke-linecap="round" stroke-linejoin="round" stroke-width="2" d="M6 9h.01M10 9h.01M14 9h.01M19 9c0 4.418-4.03 8-9 8a9.863 9.863 0 0 1-4.255-.949L1 17l1.395-3.72C1.512 12.042 1 10.574 1 9c0-4.418 4.03-8 9-8s9 3.582 9 8Z"/></svg>

<svg width="20" height="18" viewBox="0 0 20 18" fill="none" xmlns="http://www.w3.org/2000/svg">
<path d="M6 9H6.01M10 9H10.01M14 9H14.01M19 9C19 13.418 14.97 17 10 17C8.52864 17.005 7.07479 16.6808 5.745 16.051L1 17L2.395 13.28C1.512 12.042 1 10.574 1 9C1 4.582 5.03 1 10 1C14.97 1 19 4.582 19 9Z" stroke="black" stroke-width="2" stroke-linecap="round" stroke-linejoin="round"/>
</svg>
